X: 8873
T: Cunning Workmen, The
R: polka
M: 2/4
K: Gmajor
|gfgd|ed B/c/d/e/|dgdB|A2GF|G2G/A/B/c/|dge2|dgdB|A4|gfgd|
ed B/c/d/e/|dgdB|A2GF|G2G/A/B/c/|dge2|dB AB/A/|1 G4:|2 G3d||
e3/2d/ ef|g2f2|e3/2d/ ef|g3a|bg a/g/f|g{ag}fed|dgdB|A2GF|
gfgd|ed B/c/d/e/|dgdB|A2GF|G2 G/A/B/c/|dg e2|dB AB/A/|
G3d|e3/2d/ ef|g2fd|e3/2d/ ef|g3a|b/a/g a/g/f|g{ag}f ed|dgdB|A2GF|
gfgd|ed B/c/d/e/|dgdB|A2GF|G2 G/A/B/c/|dg e2|dB AB/A/|G4||

